public/svgs/regular/message-lines.svg

<svg xmlns="http://www.w3.org/2000/svg" viewBox="0 0 512 512"><!-- Font Awesome Pro 6.0.0-alpha2 by @fontawesome - https://fontawesome.com License - https://fontawesome.com/license (Commercial License) --><path d="M360 144H152C138.75 144 128 154.75 128 168S138.75 192 152 192H360C373.25 192 384 181.25 384 168S373.25 144 360 144ZM264 240H152C138.75 240 128 250.75 128 264S138.75 288 152 288H264C277.25 288 288 277.25 288 264S277.25 240 264 240ZM448 0H64C28.75 0 0 28.75 0 64V352.002C0 387.252 28.75 416.002 64 416.002H160V500.002C160 509.838 171.023 515.479 179.125 509.627L304 416.002H448C483.25 416.002 512 387.252 512 352.002V64C512 28.75 483.25 0 448 0ZM464 352.002C464 360.752 456.75 368.002 448 368.002H288L208 428.002V368.002H64C55.25 368.002 48 360.752 48 352.002V64C48 55.25 55.25 48 64 48H448C456.75 48 464 55.25 464 64V352.002Z"/></svg>

<svg xmlns="http://www.w3.org/2000/svg" viewBox="0 0 512 512"><!--! Font Awesome Pro 6.5.1 by @fontawesome - https://fontawesome.com License - https://fontawesome.com/license (Commercial License) Copyright 2023 Fonticons, Inc. --><path d="M208 416c0-26.5-21.5-48-48-48H64c-8.8 0-16-7.2-16-16V64c0-8.8 7.2-16 16-16H448c8.8 0 16 7.2 16 16V352c0 8.8-7.2 16-16 16H309.3c-10.4 0-20.5 3.4-28.8 9.6L208 432V416zm-.2 76.2l.2-.2 101.3-76H448c35.3 0 64-28.7 64-64V64c0-35.3-28.7-64-64-64H64C28.7 0 0 28.7 0 64V352c0 35.3 28.7 64 64 64h48 48v48 4 .3 6.4V496c0 6.1 3.4 11.6 8.8 14.3s11.9 2.1 16.8-1.5L202.7 496l5.1-3.8zM152 144c-13.3 0-24 10.7-24 24s10.7 24 24 24H360c13.3 0 24-10.7 24-24s-10.7-24-24-24H152zm0 96c-13.3 0-24 10.7-24 24s10.7 24 24 24H264c13.3 0 24-10.7 24-24s-10.7-24-24-24H152z"/></svg>
